icons/freedomdefined.svg

<?xml version="1.0" encoding="UTF-8" standalone="no"?>
<svg width="256px" height="256px" viewBox="0 0 256 256" version="1.1" xmlns="http://www.w3.org/2000/svg" xmlns:xlink="http://www.w3.org/1999/xlink" preserveAspectRatio="xMidYMid">
    <defs>
        <linearGradient x1="0%" y1="-1.92038577e-14%" x2="50%" y2="50%" id="linearGradient-1">
            <stop stop-color="#FF5959" offset="0%"></stop>
            <stop stop-color="#DF0000" offset="100%"></stop>
        </linearGradient>
        <linearGradient x1="0.846605405%" y1="99.1933919%" x2="50.0399865%" y2="50%" id="linearGradient-2">
            <stop stop-color="#FFB73D" offset="0%"></stop>
            <stop stop-color="#FFA000" offset="100%"></stop>
        </linearGradient>
        <linearGradient x1="92.8186757%" y1="92.8186757%" x2="50%" y2="50%" id="linearGradient-3">
            <stop stop-color="#FFF18D" offset="0%"></stop>
            <stop stop-color="#FFCD01" offset="100%"></stop>
        </linearGradient>
        <linearGradient x1="82.1708514%" y1="82.1708514%" x2="4.07623108%" y2="4.07622973%" id="linearGradient-4">
            <stop stop-color="#FFFFFF" offset="0%"></stop>
            <stop stop-color="#FFFFFF" stop-opacity="0" offset="100%"></stop>
        </linearGradient>
        <linearGradient x1="2.90435541%" y1="97.0956486%" x2="50%" y2="50%" id="linearGradient-5">
            <stop stop-color="#00A000" stop-opacity="0.25892857" offset="0%"></stop>
            <stop stop-color="#008000" offset="100%"></stop>
        </linearGradient>
        <linearGradient x1="0%" y1="50%" x2="100%" y2="50%" id="linearGradient-6">
            <stop stop-color="#263CCE" offset="0%"></stop>
            <stop stop-color="#263CCE" stop-opacity="0" offset="100%"></stop>
        </linearGradient>
        <linearGradient x1="50%" y1="50%" x2="-42.7825311%" y2="-3.5680259%" id="linearGradient-7">
            <stop stop-color="#652F99" offset="0%"></stop>
            <stop stop-color="#502679" stop-opacity="0.65178573" offset="100%"></stop>
        </linearGradient>
    </defs>
	<g>
		<path d="M255.410135,127.410191 C255.410135,197.77687 198.366671,254.820333 127.999993,254.820333 C57.6333146,254.820333 0.589851134,197.77687 0.589851134,127.410191 C0.589851134,57.0435131 57.6333146,4.95483871e-05 127.999993,4.95483871e-05 L127.999993,127.410191 L255.410135,127.410191 Z" fill="url(#linearGradient-1)"></path>
		<path d="M127.999994,236.618916 C67.6856881,236.618916 18.7912824,187.72451 18.7912824,127.410204 C18.7912824,67.0958983 67.6856881,18.2014926 127.999994,18.2014926 C188.3143,18.2014926 237.208706,67.0958983 237.208706,127.410204 L127.999994,127.410204 L127.999994,236.618916 L127.999994,236.618916 Z" fill="url(#linearGradient-2)"></path>
		<path d="M219.007588,127.410309 C219.007588,177.672195 178.26228,218.417504 128.000394,218.417504 C77.7385085,218.417504 36.9931998,177.672195 36.9931998,127.410309 C36.9931998,77.1484238 77.7385085,36.4031151 128.000394,36.4031151 L128.000394,127.410309 L219.007588,127.410309 Z" fill="url(#linearGradient-3)" transform="translate(128.000394, 127.410309) scale(-1, -1) translate(-128.000394, -127.410309) "></path>
		<path d="M127.999785,54.6049463 C168.209274,54.6049463 200.805506,87.2011776 200.805506,127.410667 C200.805506,167.620156 168.209274,200.216387 127.999785,200.216387 C87.7902962,200.216387 55.1940648,167.620156 55.1940648,127.410667 L127.999785,127.410667 L127.999785,54.6049463 L127.999785,54.6049463 Z" fill="url(#linearGradient-4)"></path>
		<path d="M182.604523,127.410156 C182.604523,157.567297 158.15733,182.01449 128.000189,182.01449 C97.8430478,182.01449 73.3958547,157.567297 73.3958547,127.410156 C73.3958547,97.253015 97.8430478,72.8058219 128.000189,72.8058219 L128.000189,127.410156 L182.604523,127.410156 Z" fill="url(#linearGradient-5)"></path>
		<path d="M128.000378,164.540978 C107.895633,164.540978 91.5975173,148.242862 91.5975173,128.138117 C91.5975173,108.033373 107.895633,91.7352571 128.000378,91.7352571 C148.105122,91.7352571 164.403238,108.033373 164.403238,128.138117 L128.000378,128.138117 L128.000378,164.540978 L128.000378,164.540978 Z" fill="url(#linearGradient-6)"></path>
		<path d="M146.201562,127.410445 C146.201562,133.91319 142.732389,139.921974 137.100847,143.173346 C131.469305,146.424719 124.530959,146.424719 118.899417,143.173346 C113.267875,139.921974 109.798702,133.91319 109.798702,127.410445 C109.798702,120.9077 113.267875,114.898916 118.899417,111.647544 C124.530959,108.396171 131.469305,108.396171 137.100847,111.647544 C142.732389,114.898916 146.201562,120.9077 146.201562,127.410445 L146.201562,127.410445 Z" fill="url(#linearGradient-7)" transform="translate(128.000132, 127.410445) scale(-1, -1) translate(-128.000132, -127.410445) "></path>
	</g>
</svg>

<svg xmlns="http://www.w3.org/2000/svg" viewBox="0 0 254.82 254.82">
  <defs>
    <linearGradient id="a" x1=".59" x2="128" y1="0" y2="127.41" gradientUnits="userSpaceOnUse">
      <stop offset="0%" stop-color="#FF5959"/>
      <stop offset="100%" stop-color="#DF0000"/>
    </linearGradient>
    <linearGradient id="b" x1="20.64" x2="128.087" y1="234.857" y2="127.41" gradientUnits="userSpaceOnUse">
      <stop offset="0%" stop-color="#FFB73D"/>
      <stop offset="100%" stop-color="#FFA000"/>
    </linearGradient>
    <linearGradient id="c" x1="205.937" x2="128" y1="205.346" y2="127.41" gradientUnits="userSpaceOnUse">
      <stop offset="0%" stop-color="#FFF18D"/>
      <stop offset="100%" stop-color="#FFCD01"/>
    </linearGradient>
    <linearGradient id="d" x1="174.844" x2="61.13" y1="174.255" y2="60.54" gradientUnits="userSpaceOnUse">
      <stop offset="0%" stop-color="#FFF"/>
      <stop offset="100%" stop-color="#FFF" stop-opacity="0"/>
    </linearGradient>
    <linearGradient id="e" x1="76.568" x2="128" y1="178.843" y2="127.41" gradientUnits="userSpaceOnUse">
      <stop offset="0%" stop-color="#00A000" stop-opacity=".259"/>
      <stop offset="100%" stop-color="green"/>
    </linearGradient>
    <linearGradient id="f" x1="91.598" x2="164.403" y1="128.138" y2="128.138" gradientUnits="userSpaceOnUse">
      <stop offset="0%" stop-color="#263CCE"/>
      <stop offset="100%" stop-color="#263CCE" stop-opacity="0"/>
    </linearGradient>
    <linearGradient id="g" x1="128" x2="94.225" y1="127.41" y2="107.91" gradientUnits="userSpaceOnUse">
      <stop offset="0%" stop-color="#652F99"/>
      <stop offset="100%" stop-color="#502679" stop-opacity=".652"/>
    </linearGradient>
  </defs>
  <path fill="url(#a)" d="M255.41 127.41c0 70.367-57.043 127.41-127.41 127.41C57.633 254.82.59 197.777.59 127.41.59 57.044 57.633 0 128 0v127.41z" style="fill:url(#a)" transform="translate(-.59)"/>
  <path fill="url(#b)" d="M128 236.619c-60.314 0-109.209-48.894-109.209-109.209C18.791 67.096 67.686 18.201 128 18.201s109.209 48.895 109.209 109.21H128z" style="fill:url(#b)" transform="translate(-.59)"/>
  <path fill="url(#c)" d="M219.008 127.41c0 50.262-40.746 91.007-91.008 91.007-50.261 0-91.007-40.745-91.007-91.007 0-50.262 40.746-91.007 91.007-91.007v91.007z" style="fill:url(#c)" transform="rotate(180 127.705 127.41)"/>
  <path fill="url(#d)" d="M128 54.605c40.21 0 72.806 32.596 72.806 72.806S168.209 200.216 128 200.216c-40.21 0-72.806-32.596-72.806-72.805H128z" style="fill:url(#d)" transform="translate(-.59)"/>
  <path fill="url(#e)" d="M182.605 127.41c0 30.157-24.448 54.604-54.605 54.604-30.157 0-54.604-24.447-54.604-54.604S97.843 72.806 128 72.806v54.604z" style="fill:url(#e)" transform="translate(-.59)"/>
  <path fill="url(#f)" d="M128 164.541c-20.104 0-36.402-16.298-36.402-36.403S107.896 91.735 128 91.735c20.105 0 36.403 16.298 36.403 36.403H128z" style="fill:url(#f)" transform="translate(-.59)"/>
  <path fill="url(#g)" d="M146.202 127.41a18.201 18.201 0 1 1-36.403 0 18.201 18.201 0 0 1 36.403 0z" style="fill:url(#g)" transform="rotate(180 127.705 127.41)"/>
</svg>
